X:393
T:Lady Ann Hope
R:Strathspey
C:John Pringle
B:The Athole Collection
M:C
L:1/8
K:C
D|GGG>B A>G E<B|c2 c>e d>c B<d|BBB>G c>AB>G|E>A G/F/E/D/ G2G:|
e/f/|:~g2 d>g B>gd>g|g>ab>g e2 e>f|(3gab (3agf (3efg (3dcB|
1 (3cde (3def (3gdc (3BcA:|2 (3cde (3def g2 g>b||

